X: 020444
T: Bloody Hollow
R: jig
C: Joe Mills
Z: B.Black
M: 6/8
L: 1/8
N: Thanks to Philippe Varlet for the name.
K: G
D | DGG GFG | FEF DFA | BAB GBd | cAG FGA |
DGG GFG | FEF DFA | ded cAF | G3 G2 :|
B/2c/2 | dgg d=ff | dgd cBc | dgg dcA | GFG ABc | 
def gfg | agf gfe |1 ded cAF | G3 G2 :|2\
fed cAF | G3 G2 ||
